local/share/icons/dracula-icons-main/scalable/apps/gnome-chess.svg

<?xml version="1.0" encoding="UTF-8"?>
<svg xmlns="http://www.w3.org/2000/svg" xmlns:xlink="http://www.w3.org/1999/xlink" width="64" height="64" viewBox="0 0 64 64">
<path fill-rule="nonzero" fill="rgb(97.647059%, 97.647059%, 97.647059%)" fill-opacity="1" d="M 15.609375 8.464844 C 15.609375 12.410156 12.410156 15.609375 8.464844 15.609375 C 4.519531 15.609375 1.324219 12.410156 1.324219 8.464844 C 1.324219 4.519531 4.519531 1.324219 8.464844 1.324219 C 12.410156 1.324219 15.609375 4.519531 15.609375 8.464844 Z M 15.609375 8.464844 "/>
<path fill-rule="nonzero" fill="rgb(50.196078%, 50.196078%, 50.196078%)" fill-opacity="1" d="M 8.464844 1.324219 C 4.519531 1.324219 1.324219 4.519531 1.324219 8.464844 C 1.324219 8.464844 1.324219 8.46875 1.324219 8.46875 L 8.46875 8.46875 L 8.46875 1.324219 C 8.46875 1.324219 8.464844 1.324219 8.464844 1.324219 Z M 8.464844 1.324219 "/>
<path fill-rule="nonzero" fill="rgb(50.196078%, 50.196078%, 50.196078%)" fill-opacity="1" d="M 8.464844 8.46875 L 8.464844 15.609375 C 12.410156 15.609375 15.609375 12.414062 15.609375 8.46875 Z M 8.464844 8.46875 "/>
<path fill-rule="nonzero" fill="rgb(30.196078%, 30.196078%, 30.196078%)" fill-opacity="1" d="M 11.308594 12.238281 L 11.277344 12.238281 L 11.277344 12.128906 C 11.277344 12.0625 11.25 11.996094 11.203125 11.945312 C 11.152344 11.898438 11.089844 11.871094 11.019531 11.871094 L 10.898438 11.871094 C 10.878906 11.722656 10.882812 11.574219 10.910156 11.429688 C 11.046875 10.804688 11.21875 10.183594 11.410156 9.574219 C 11.730469 8.570312 11.925781 7.570312 11.605469 6.527344 C 11.253906 5.367188 10.550781 4.539062 9.355469 4.183594 C 9.265625 4.148438 9.1875 4.085938 9.140625 4.003906 C 8.96875 3.714844 8.742188 3.457031 8.472656 3.253906 C 8.460938 3.386719 8.445312 3.476562 8.441406 3.5625 C 8.441406 3.691406 8.445312 3.820312 8.457031 3.945312 C 8.472656 4.125 8.417969 4.230469 8.222656 4.246094 C 8.113281 4.253906 8.003906 4.296875 7.902344 4.320312 C 7.902344 4.722656 7.902344 4.722656 7.539062 4.867188 C 7.421875 4.917969 7.292969 4.953125 7.183594 5.015625 C 7.09375 5.074219 7.015625 5.144531 6.949219 5.226562 C 6.792969 5.40625 6.660156 5.613281 6.484375 5.777344 C 6.132812 6.101562 5.765625 6.410156 5.394531 6.714844 C 5.234375 6.84375 5.113281 6.960938 5.195312 7.191406 C 5.21875 7.257812 5.183594 7.34375 5.171875 7.421875 C 5.125 7.65625 5.328125 8.0625 5.546875 8.171875 C 6.0625 8.421875 6.46875 8.351562 6.878906 7.9375 C 7.070312 7.742188 7.28125 7.664062 7.554688 7.757812 C 7.929688 7.890625 8.3125 7.984375 8.761719 7.878906 C 8.671875 7.972656 8.621094 8.03125 8.566406 8.085938 C 8.054688 8.605469 7.558594 9.140625 7.183594 9.773438 C 6.886719 10.273438 6.644531 10.800781 6.652344 11.398438 C 6.65625 11.554688 6.675781 11.710938 6.695312 11.871094 L 6.644531 11.871094 C 6.574219 11.871094 6.511719 11.898438 6.460938 11.945312 C 6.414062 11.992188 6.386719 12.058594 6.386719 12.128906 L 6.386719 12.238281 L 6.355469 12.238281 C 6.195312 12.238281 6.066406 12.367188 6.066406 12.53125 L 6.066406 13.679688 L 11.597656 13.679688 L 11.597656 12.53125 C 11.597656 12.453125 11.570312 12.378906 11.515625 12.324219 C 11.457031 12.269531 11.382812 12.238281 11.308594 12.238281 Z M 11.308594 12.238281 "/>
</svg>

<svg width="64" height="64" version="1.1" viewBox="0 0 16.933 16.933" xmlns="http://www.w3.org/2000/svg" xmlns:xlink="http://www.w3.org/1999/xlink">
 <circle cx="8.4665" cy="8.4665" r="7.1436" fill="#f9f9f9" style="paint-order:stroke fill markers"/>
 <path transform="scale(.26458)" d="m32 5a27 27 0 0 0-27 27 27 27 0 0 0 0 0.001953h27.002v-27.002a27 27 0 0 0-0.001953 0z" fill="#808080" stroke-width="4.7551" style="paint-order:markers stroke fill"/>
 <path transform="scale(.26458)" d="m31.998 32.002v26.998a27 27 0 0 0 0.001953 0 27 27 0 0 0 27-26.998h-27.002z" fill="#808080" stroke-width="5.2011" style="paint-order:markers stroke fill"/>
 <path d="M11.307 12.239h-.03v-.11a.257.257 0 0 0-.257-.258h-.12a1.41 1.41 0 0 1 .01-.442c.138-.625.308-1.245.502-1.854.32-1.003.512-2.005.194-3.046-.354-1.163-1.057-1.988-2.252-2.346a.43.43 0 0 1-.215-.178 2.562 2.562 0 0 0-.665-.752c-.015.135-.03.222-.031.308-.001.129.004.258.015.385.016.178-.039.285-.236.301-.11.008-.218.05-.32.075 0 .4 0 .4-.363.547-.119.048-.245.084-.355.148a.983.983 0 0 0-.234.208c-.158.182-.29.39-.466.553-.35.325-.717.634-1.088.936-.16.13-.282.248-.202.477.023.066-.009.154-.023.23-.045.237.158.643.376.749.516.25.922.181 1.33-.233.194-.195.405-.272.678-.178.375.13.758.226 1.206.121-.088.093-.14.15-.194.204-.512.52-1.007 1.056-1.382 1.688-.298.502-.541 1.03-.531 1.628.003.156.02.312.042.47h-.052a.257.257 0 0 0-.257.258v.11h-.03c-.16 0-.291.13-.291.292v1.15h5.533v-1.15a.29.29 0 0 0-.292-.291z" fill="#4d4d4d"/>
</svg>
